X: 208
T: Missa De Beata Marie Virginis (II) Et iterum Credo
C: Giovanni Perluigi da Palestrina
L: 1/4
M: 4/2
N: Derived from Credo_06_f.krn
Q: "Credo"
V: 1 clef=treble
V: 2 clef=treble
V: 3 clef=treble-8
V: 4 clef=treble-8
V: 5 clef=bass
K: C
[V:1] z8 | 
[V:2] z8 | 
[V:3] c4g3g | 
[V:4] z8 | 
[V:5] z4C,4 | 
[V:1] z8 | 
[V:2] z8 | 
[V:3] g2e2d2c2 | 
[V:4] z8 | 
[V:5] G,2>G,2G,2A,2 | 
[V:1] z8 | 
[V:2] z2C2G3G | 
[V:3] B2A2c2B2 | 
[V:4] z8 | 
[V:5] G,2F,2E,2G,2 | 
[V:1] z8 | 
[V:2] G2A2G2F2 | 
[V:3] e3d/ c/d2c2- | 
[V:4] z8 | 
[V:5] C4B,2A,2- | 
[V:1] z8 | 
[V:2] E2G2c4- | 
[V:3] c2B2ABcd | 
[V:4] z8 | 
[V:5] A,2G,2F,G,A,B, | 
[V:1] z4z2d2- | 
[V:2] c2B2A4 | 
[V:3] e^fg4^f2 | 
[V:4] z8 | 
[V:5] C4D4 | 
[V:1] d2B2d2c2 | 
[V:2] B2>A2G4 | 
[V:3] g4z4 | 
[V:4] z2g4e2 | 
[V:5] G,4B,2C2 | 
[V:1] B2c4BA | 
[V:2] z4z2G2- | 
[V:3] z8 | 
[V:4] g2f2e4 | 
[V:5] G,2A,2>A,2E,2 | 
[V:1] B2c4B2 | 
[V:2] G2E2G4 | 
[V:3] z8 | 
[V:4] d2c2e2dc | 
[V:5] G,2A,2G,4 | 
[V:1] A2G4^F2 | 
[V:2] F2E2D2C2- | 
[V:3] z8 | 
[V:4] dAc2B2A2 | 
[V:5] z8 | 
[V:1] G8- | 
[V:2] C2B,A,B,4 | 
[V:3] d6d2 | 
[V:4] G4z4 | 
[V:5] z4G,4- | 
[V:1] G4z4 | 
[V:2] D2D2E4 | 
[V:3] G2B2c2B2 | 
[V:4] z2g4g2 | 
[V:5] G,2G,2C,2E,2 | 
[V:1] z8 | 
[V:2] z8 | 
[V:3] A2G2A3B | 
[V:4] c2e2f4 | 
[V:5] F,2E,2D,E,F,G, | 
[V:1] z4d4- | 
[V:2] z8 | 
[V:3] c4G4- | 
[V:4] e2e2d4- | 
[V:5] A,B,C4B,A, | 
[V:1] d2d2G2B2 | 
[V:2] z2G4G2 | 
[V:3] G4z2g2 | 
[V:4] d4e4- | 
[V:5] B,4C2G,2 | 
[V:1] c4A4 | 
[V:2] C2E2F2A2- | 
[V:3] e2a2>g2fe | 
[V:4] e2A2>B2c2 | 
[V:5] A,4F,4 | 
[V:1] B4A4 | 
[V:2] A2G4^F2 | 
[V:3] d4d4 | 
[V:4] B2G2A4 | 
[V:5] G,4D,4 | 
[V:1] B8- | 
[V:2] G8- | 
[V:3] d8- | 
[V:4] G8- | 
[V:5] G,8- | 
[V:1] B8
[V:2] G8
[V:3] d8
[V:4] G8
[V:5] G,8

